packages/core/src/svgs/networks/branded/arbitrum-nova.svg

<svg width="24" height="24" viewBox="0 0 24 24" fill="none" xmlns="http://www.w3.org/2000/svg">
<path d="M8.93829 5H7.1066C6.98011 5 6.8672 5.08143 6.8238 5.20374L2.00924 18.7919C1.97344 18.893 2.04614 19 2.15064 19H3.98233C4.10882 19 4.22173 18.9186 4.26513 18.7964L9.07969 5.20806C9.11549 5.10697 9.04278 5 8.93829 5ZM11.1662 10.6936C11.1181 10.5578 10.9316 10.5578 10.8834 10.6936L9.93378 13.374C9.90949 13.4425 9.90949 13.5178 9.93378 13.5864L11.7798 18.7963C11.8231 18.9186 11.9361 18.9999 12.0626 18.9999H13.8943C13.9987 18.9999 14.0715 18.8929 14.0357 18.7918L11.1662 10.6936ZM15.8356 13.3171C15.8837 13.4529 16.0702 13.4529 16.1183 13.3171L18.9915 5.20806C19.0273 5.10697 18.9546 5 18.8501 5H17.0184C16.8919 5 16.779 5.08133 16.7356 5.20374L14.8859 10.4242C14.8616 10.4928 14.8616 10.568 14.8859 10.6365L15.8356 13.3171ZM12.2241 5.2023C12.1812 5.08082 12.069 5 11.9435 5H10.1056C9.97918 5 9.86629 5.08133 9.82289 5.20364L5.00841 18.7919C4.97261 18.893 5.04532 19 5.14981 19H6.9816C7.10811 19 7.221 18.9187 7.2644 18.7964L10.9506 8.39242C10.9748 8.32416 11.0685 8.32416 11.0926 8.39242L14.7788 18.7964C14.8221 18.9187 14.9351 19 15.0616 19H16.8934C16.9979 19 17.0706 18.893 17.0348 18.792L12.2241 5.2023ZM21.8493 5H20.0174C19.891 5 19.778 5.08133 19.7347 5.20364L16.3854 14.6565C16.3611 14.7251 16.3611 14.8002 16.3854 14.8688L17.3352 17.5494C17.3833 17.6852 17.5698 17.6852 17.6179 17.5494L20.9333 8.19198L21.9908 5.20796C22.0266 5.10697 21.9538 5 21.8493 5Z" fill="#EF8220"/>
</svg>

<svg xmlns="http://www.w3.org/2000/svg" width="24" height="24" fill="none" viewBox="0 0 24 24">
    <path fill="#EF8220" d="M8.938 5H7.107a.3.3 0 0 0-.283.204L2.009 18.792a.154.154 0 0 0 .142.208h1.831a.3.3 0 0 0 .283-.204L9.08 5.208C9.115 5.107 9.043 5 8.938 5m2.228 5.694a.15.15 0 0 0-.283 0l-.95 2.68a.32.32 0 0 0 0 .212l1.847 5.21a.3.3 0 0 0 .283.204h1.831a.154.154 0 0 0 .142-.208zm4.67 2.623a.149.149 0 0 0 .282 0l2.874-8.109c.035-.101-.037-.208-.142-.208h-1.832a.3.3 0 0 0-.282.204l-1.85 5.22a.32.32 0 0 0 0 .213zm-3.612-8.115a.3.3 0 0 0-.28-.202h-1.838a.3.3 0 0 0-.283.204L5.008 18.792c-.035.101.037.208.142.208h1.832a.3.3 0 0 0 .282-.204l3.687-10.404a.075.075 0 0 1 .142 0l3.686 10.404a.3.3 0 0 0 .283.204h1.831a.154.154 0 0 0 .142-.208zM21.85 5h-1.832a.3.3 0 0 0-.282.204l-3.35 9.453a.32.32 0 0 0 0 .212l.95 2.68a.149.149 0 0 0 .283 0l3.315-9.357 1.058-2.984A.154.154 0 0 0 21.849 5"/>
</svg>
